icons/op-contacts-24.svg

<svg width="24" height="24" viewBox="0 0 24 24" fill="none" xmlns="http://www.w3.org/2000/svg">
<path d="M6 4C6 4 7.03125 4 6 4V20H6.03125C5 20 4 19 4 17.9062V6C4 4.8125 4.96875 4 6 4ZM20 11H18V8H19C20 8 20 9.09375 20 9.09375V11ZM20 16H18V19H19C20 19 20 18.0312 20 18.0312V16ZM20 15H18V12H20V15ZM14.9688 4H7V20H15C16.0312 20 17 19.1875 17 18V6.09375C17 5 16 4 14.9688 4ZM15 14H9C9 14 8.9375 13.375 9.125 13.125C9.28125 12.8438 9.90625 12.6562 10.5 12.4062C11.0938 12.1562 11.25 12.0625 11.25 12.0625V11.5C11.25 11.5 11.0312 11.3125 10.9375 10.7812C10.8125 10.8125 10.6562 10.5625 10.6562 10.4375C10.6562 10.3125 10.6875 9.96875 10.8438 10C10.8125 9.71875 10.7812 9.5 10.8125 9.34375C10.8438 8.90625 11.3125 8.40625 12 8.40625C12.6875 8.40625 13.1562 8.90625 13.1875 9.34375C13.2188 9.5 13.1875 9.71875 13.1562 10C13.3125 9.96875 13.3438 10.3125 13.3438 10.4375C13.3438 10.5625 13.1875 10.8125 13.0312 10.7812C12.9688 11.3125 12.75 11.5 12.75 11.5V12.0625C12.75 12.0625 12.9062 12.1562 13.5 12.4062C14.0938 12.6562 14.6875 12.8438 14.875 13.125C15.0312 13.375 15 14 15 14Z" fill="black"/>
</svg>

<svg xmlns="http://www.w3.org/2000/svg" width="24" height="24" viewBox="0 0 24 24"><path d="M6 4s1.031 0 0 0v16h.031C5 20 4 19 4 17.906V6c0-1.188.969-2 2-2Zm14 7h-2V8h1c1 0 1 1.094 1 1.094V11Zm0 5h-2v3h1c1 0 1-.969 1-.969V16Zm0-1h-2v-3h2v3ZM14.969 4H7v16h8c1.031 0 2-.812 2-2V6.094C17 5 16 4 14.969 4ZM15 14H9s-.062-.625.125-.875c.156-.281.781-.469 1.375-.719s.75-.344.75-.344V11.5s-.219-.188-.312-.719c-.126.031-.282-.219-.282-.343 0-.126.032-.469.188-.438-.032-.281-.063-.5-.032-.656.032-.438.5-.938 1.188-.938s1.156.5 1.188.938c.031.156 0 .375-.032.656.156-.031.188.312.188.438 0 .124-.156.374-.313.343-.062.531-.281.719-.281.719v.562s.156.094.75.344c.594.25 1.188.438 1.375.719.156.25.125.875.125.875Z"/></svg>
